icons/bhi_users.svg

<svg xmlns="http://www.w3.org/2000/svg" viewBox="0 0 512 512" enable-background="new 0 0 512 512"><path fill="#010101" d="M347.6 224c37.2 0 64-28.9 64-64s-28.9-64-64-64-64 28.9-64 64 28.9 64 64 64zm-184.9 0c37.2 0 64-28.9 64-64s-28.9-64-64-64-66.1 26.8-66.1 64 28.9 64 66.1 64zm.1 51.7c-53.4 0-162.6 29-162.6 82.4v57.9h325.1v-57.9c.1-53.4-109.1-82.4-162.5-82.4zm184.8 0c-6.7 0-13.4 0-22.3 2.2 29 17.8 46.8 46.8 46.8 80.2v57.9h140.3v-57.9c-2.2-53.4-111.3-82.4-164.8-82.4z"/></svg>

<?xml version="1.0" encoding="utf-8"?>
<!-- Generator: Adobe Illustrator 19.2.0, SVG Export Plug-In . SVG Version: 6.00 Build 0)  -->
<svg version="1.1" id="Layer_1" xmlns="http://www.w3.org/2000/svg" xmlns:xlink="http://www.w3.org/1999/xlink" x="0px" y="0px"
	 viewBox="0 0 512 512" enable-background="new 0 0 512 512" xml:space="preserve">
<g id="group_1_">
	<path fill="#010101" d="M347.6,224c37.2,0,64-28.9,64-64s-28.9-64-64-64s-64,28.9-64,64S312.5,224,347.6,224z M162.7,224
		c37.2,0,64-28.9,64-64s-28.9-64-64-64s-66.1,26.8-66.1,64S125.5,224,162.7,224z M162.8,275.7c-53.4,0-162.6,29-162.6,82.4V416
		h325.1v-57.9C325.4,304.7,216.2,275.7,162.8,275.7z M347.6,275.7c-6.7,0-13.4,0-22.3,2.2c29,17.8,46.8,46.8,46.8,80.2V416h140.3
		v-57.9C510.2,304.7,401.1,275.7,347.6,275.7z"/>
</g>
</svg>
